copytrade/img/icomoon/password.svg

<svg width="24" height="24" viewBox="0 0 24 24" fill="none" xmlns="http://www.w3.org/2000/svg">
<path fill-rule="evenodd" clip-rule="evenodd" d="M7.65931 8.63233C6.34019 9.58138 5.26425 10.7442 4.58403 11.57C4.37173 11.8278 4.37173 12.1722 4.58403 12.43C5.26425 13.2558 6.34019 14.4186 7.65931 15.3677C8.98633 16.3224 10.4744 17 12.0002 17C13.526 17 15.014 16.3224 16.341 15.3677C17.6602 14.4186 18.7361 13.2558 19.4163 12.43C19.6286 12.1722 19.6286 11.8278 19.4163 11.57C18.7361 10.7442 17.6602 9.58138 16.341 8.63233C15.014 7.6776 13.526 7 12.0002 7C10.4744 7 8.98633 7.6776 7.65931 8.63233ZM6.49128 7.00884C7.99432 5.92747 9.89024 5 12.0002 5C14.1101 5 16.006 5.92747 17.5091 7.00885C19.02 8.0959 20.2202 9.40025 20.9601 10.2985C21.7807 11.2948 21.7807 12.7052 20.9601 13.7015C20.2202 14.5998 19.02 15.9041 17.5091 16.9912C16.006 18.0725 14.1101 19 12.0002 19C9.89024 19 7.99432 18.0725 6.49128 16.9912C4.98034 15.9041 3.78013 14.5998 3.04026 13.7015C2.21965 12.7052 2.21965 11.2948 3.04026 10.2985C3.78013 9.40024 4.98034 8.0959 6.49128 7.00884Z" fill="#282C33"/>
<path fill-rule="evenodd" clip-rule="evenodd" d="M12 10C10.8954 10 10 10.8954 10 12C10 13.1046 10.8954 14 12 14C13.1046 14 14 13.1046 14 12C14 10.8954 13.1046 10 12 10ZM8 12C8 9.79086 9.79086 8 12 8C14.2091 8 16 9.79086 16 12C16 14.2091 14.2091 16 12 16C9.79086 16 8 14.2091 8 12Z" fill="#282C33"/>
</svg>

<svg width="24" height="24" fill="none" xmlns="http://www.w3.org/2000/svg"><path fill-rule="evenodd" clip-rule="evenodd" d="M7.66 8.632c-1.32.95-2.396 2.112-3.076 2.938a.66.66 0 000 .86c.68.826 1.756 1.989 3.075 2.938C8.986 16.322 10.474 17 12 17c1.526 0 3.014-.678 4.341-1.632 1.32-.95 2.395-2.112 3.075-2.938a.66.66 0 000-.86c-.68-.826-1.756-1.989-3.075-2.938C15.014 7.678 13.526 7 12.001 7c-1.527 0-3.015.678-4.342 1.632zM6.49 7.01C7.994 5.927 9.891 5 12.001 5s4.005.927 5.508 2.009c1.511 1.087 2.711 2.391 3.451 3.29a2.66 2.66 0 010 3.402c-.74.899-1.94 2.203-3.45 3.29C16.005 18.073 14.11 19 12 19s-4.006-.927-5.509-2.009c-1.51-1.087-2.71-2.391-3.45-3.29a2.66 2.66 0 010-3.402c.74-.899 1.94-2.203 3.45-3.29z" fill="#282C33"/><path fill-rule="evenodd" clip-rule="evenodd" d="M12 10a2 2 0 100 4 2 2 0 000-4zm-4 2a4 4 0 118 0 4 4 0 01-8 0z" fill="#282C33"/></svg>
